X: 24455
T: Lucky Can Du Link Ony
R: reel
M: 4/4
K: Cmajor
|:c2cG cGGA|cAGE CDEC|D2EG Accd|cAGA c3d|
c2cG cGGA|cAGE CDEC|D2EG Accd|cAGA c3g|
ecgc ecca|gedB GABg|ecgc ecca|gede c3g|
ecgc ecca|gedB GABG|AccB c2cd|1 cAGAc3d:|2 cAGAc4||

